X: 17
T: Inisheer / Inis O\'irr
C: Thomas Walsh \251 1970
M: 3/4
L: 1/8
K: G
D2 |\
"G"B2 BA B<d | "/F#"B2 BA B<d | "Em"E3 B AB | "D7"A2 AB AG "^I"|\
"G"B2 BA B<d | "/F#"B2 BA B<d | "C"E3 B "D7"(3AGF |1 "G"G4 D2 :|2 "G"G2 GA Bd |]
"C"e2 ef ed | "Bm7"B3 A Bd | "Em"gf ed "(D)"(3Bcd | "C"e3 A Bd |\
"Am7"e2 ed e<g | "G"B2 BA B<d | "C"G3 B "(D)"(3AGF | "G"G2 GA Bd ||
"C(Am7)"e2 ef ed | "G"B3 A Bd | "Em"gf ed "(D)"(3Bcd | "C"e4 (3Bcd "^I"|\
"Am"e2 ed e<g | "G"B2 (3BcB AB | "C"G3 B "D7"(3AGF | "G"G4 |]


